X:122
T: Killiecrankie with variations
N: O'Farrell's Pocket Companion v.2 (Sky ed. p.63)
M: C
R: march
L: 1/8
Q: 120 % "slow"
K: D
F/G/ |A>BAF A/F/A/B/ A>F|A>B A/B/d/F/A2 AF/A/|
B>cBA B/A/B/d/ BA/B/|e>f d/e//f//e/d/ B2 Bf/a/|
ba/f/ af/e/ {g}fe/d/ e>f|d>B A/B/d/F/ A2 Ad/c/|
BA/B/ dB/d/ ed/e/ f>e|d>B A/B/d/F/ E2 D :|
P:2
f/g/|a>baf a/f/a/b/ a>f|a/g/f/e/ d/e/f/g/ a2 af/a/|
b>c' ba b/a/b/c'/ b>a|b/a/f/e/ d/e/f/a/ b2 bf/a/|
b/a/f/b/ a/f/e/a/ g/f/e/d/ e>f|d>B A/B/d/F/ A2 Ad/c/|
BA/B/ dB/d/ ee f>e|d>B A/B/d/F/ E2 D :|
P:3
F|AB/A/ dF/A/ dFA>B|D/E/F/G/ A/B/d/F/ A2 Ad/c/|
B>c B/d/A/d/ B/d/A/d/ BA/B/|d>e g/f/e/d/ B2 Bf/a/|
ba/f/ a>b g/f/e/d/ ed/e/|f/e/d/B/ A/B/d/F/ A2 Ad/c/|
Bd/B/ ce/c/ d/f/b/a/ g/f/e/f/|d/c/d/B/ A/B/d/F/ E2 D :|
P:4
f/g/|a>b a/g/f/e/ d/e/f/g/ a>b|a/g/f/e/ d/e/f/g/ a2 af/a/|
b>c' ba b/a/b/c'/ b>a|b/a/g/f/ e/d/g/a/b2 bf/a/|
b/a/f/b/ a/f/e/a/ g/f/e/d/ ed/e/|f/e/d/B/ A/B/d/F/ A2 Ad/c/|
B/B/B/B/ d/d/d/d/ e/e/e/e/ f/g/f/e/|d/c/d/B/ A/B/d/F/ E2 D :|
